X:1
T:Albert Ham
T:St.Hilda
%%score { ( 1 2 ) | ( 3 4 ) }
L:1/8
Q:1/4=184
M:4/2
K:Eb
V:1 treble 
V:2 treble 
V:3 bass 
V:4 bass 
V:1
"^Presto" B4 (B2 A2) G4 B4 | E4 A4 G8 | c4 B4 E4 A4 | G6 F2 F8 | B4 (B2 A2) G4 B4 | E4 A4 G8 | %6
 G4 d4 d4 c4 | B4 =A4 B8 | E4 F4 G4 G4 | c4 B4 A8 | B4 A4 G4 F4 | G4 F4 E8 | E8 E8 |] %13
V:2
 E4 D4 E4 D4 | E4 F4 E8 | E4 (E2 D2) C4 E4 | E4 E4 D8 | E4 F4 E4 D4 | E4 D4 D8 | G4 G4 G4 G4 | %7
 F4 E4 D8 | C4 B,4 B,4 E4 | =E4 E4 F8 | F4 F4 E4 E4 | E4 D4 E8 | C8 B,8 |] %13
V:3
 B,4 B,4 B,4 A,4 | G,4 B,4 B,8 | A,4 B,4 C4 C4 | B,4 =A,4 B,8 | B,4 B,4 B,4 A,4 | %5
 (G,2 C2) (D2 C2) =B,8 | C4 F4 F4 E4 | D4 C4 B,8 | G,4 F,4 E,4 B,4 | G,4 C4 C8 | B,4 D4 E4 C4 | %11
 B,6 A,2 G,8 | A,8 G,8 |] %13
V:4
 G,4 F,4 E,4 B,,4 | C,4 D,4 E,8 | A,4 G,4 C,4 A,,4 | B,,4 C,4 B,,8 | G,4 D,4 E,4 B,,4 | %5
 C,4 F,4 (G,4 F,4) | E,4 =B,,4 C,4 E,4 | F,4 F,4 B,,8 | C,4 D,4 E,4 _D,4 | C,4 C,4 F,8 | %10
 D,4 B,,4 C,4 A,,4 | B,,4 B,,4 E,8 | A,,8 E,8 |] %13

